assets/img/logo.svg

<svg width="67" height="68" viewBox="0 0 67 68" fill="none" xmlns="http://www.w3.org/2000/svg">
<g clip-path="url(#clip0_1059_1182)">
<path d="M17.904 55.5936V57.9606H15.0367V59.071H17.843V61.438H15.0367V64.1345H12.5964V55.5936H17.904ZM22.5362 61.1696V58.0338H24.7935V64.1345H22.5362V63.5367C22.158 64.0491 21.6211 64.3053 20.9012 64.3053C19.5713 64.3053 18.6928 63.378 18.6928 61.56V58.0338H20.95V61.316C20.95 61.8651 21.2063 62.1335 21.7065 62.1335C22.2434 62.1335 22.5362 61.7675 22.5362 61.1696ZM28.0292 58.0338V59.2174C28.261 58.3877 28.9809 57.9118 29.8594 57.9118V60.3521C29.3714 60.2911 28.9443 60.3887 28.5783 60.6449C28.2122 60.9012 28.0292 61.3038 28.0292 61.8651V64.1345H25.772V58.0338H28.0292ZM33.0885 60.9378V61.8895H36.2608V64.1345H30.6482V55.5936H36.1998V57.8142H33.0885V58.7415H35.8948V60.9378H33.0885ZM40.1047 61.0842L41.0809 58.0338H43.5821L41.2639 64.1345H38.9456L36.6274 58.0338H39.1286L40.1047 61.0842ZM50.1381 61.8529H46.0872C46.2825 62.2555 46.6973 62.4629 47.3318 62.4629C47.71 62.4629 48.0516 62.3287 48.3689 62.0725L49.8453 63.317C49.2352 63.9759 48.3689 64.3053 47.2586 64.3053C46.2214 64.3053 45.3796 64.0003 44.7451 63.4024C44.1228 62.7924 43.8056 62.0237 43.8056 61.1086C43.8056 60.1813 44.1106 59.4126 44.7207 58.7903C45.3429 58.1681 46.1116 57.863 47.0511 57.863C47.9784 57.863 48.7349 58.1681 49.3328 58.7781C49.9307 59.376 50.2357 60.1447 50.2357 61.0598C50.2357 61.3282 50.1991 61.5966 50.1381 61.8529ZM46.0506 60.4009H48.1005C47.9662 59.9128 47.6368 59.6688 47.1121 59.6688C46.5875 59.6688 46.2336 59.9128 46.0506 60.4009ZM53.1588 58.0338V59.2174C53.3906 58.3877 54.1105 57.9118 54.989 57.9118V60.3521C54.5009 60.2911 54.0739 60.3887 53.7078 60.6449C53.3418 60.9012 53.1588 61.3038 53.1588 61.8651V64.1345H50.9015V58.0338H53.1588Z" fill="#000049"/>
<path d="M51.8308 13.2149V22.7672V47.5231C51.8308 48.1565 51.5792 48.7639 51.1314 49.2117C50.6835 49.6596 50.0761 49.9112 49.4427 49.9112H17.5111C17.1972 49.9112 16.8863 49.8493 16.5964 49.729C16.3064 49.6088 16.0429 49.4325 15.8211 49.2104C15.5993 48.9882 15.4235 48.7245 15.3037 48.4343C15.1839 48.1441 15.1225 47.8332 15.123 47.5193L15.1461 33.0604V22.7672V13.2687L32.112 1.5741C32.5083 1.30439 32.9765 1.16016 33.4558 1.16016C33.9351 1.16016 34.4033 1.30439 34.7996 1.5741L51.8308 13.2149Z" fill="#FBB91C" stroke="#000049" stroke-width="2.30359" stroke-miterlimit="10"/>
<path d="M14.2669 28.868H5.05256C1.23244 28.868 -0.299452 23.9575 2.83343 21.7959L14.9273 13.4377L14.9043 28.8603H12.7312" fill="#FF5B35"/>
<path d="M14.2669 28.868H5.05256C1.23244 28.868 -0.299452 23.9575 2.83343 21.7959L14.9273 13.4377L14.9043 28.8603H12.7312" stroke="#000049" stroke-width="2.30359" stroke-miterlimit="10"/>
<path d="M64.1672 21.6154L51.9966 13.3225L52.1002 28.6798H61.9635C65.7682 28.6913 67.3001 23.7808 64.1672 21.6154Z" fill="#FF5B35" stroke="#000049" stroke-width="2.30359" stroke-miterlimit="10"/>
<path d="M23.4391 27.0941C24.3467 27.0941 25.0824 26.3584 25.0824 25.4508C25.0824 24.5433 24.3467 23.8076 23.4391 23.8076C22.5316 23.8076 21.7959 24.5433 21.7959 25.4508C21.7959 26.3584 22.5316 27.0941 23.4391 27.0941Z" fill="#000049" stroke="#000049" stroke-width="2.30359" stroke-miterlimit="10"/>
<path d="M32.8953 33.8936C34.774 33.8936 36.2969 32.3706 36.2969 30.492C36.2969 28.6133 34.774 27.0903 32.8953 27.0903C31.0166 27.0903 29.4937 28.6133 29.4937 30.492C29.4937 32.3706 31.0166 33.8936 32.8953 33.8936Z" fill="#FF5B35" stroke="#000049" stroke-width="2.30359" stroke-miterlimit="10"/>
<path d="M42.9235 27.0941C43.831 27.0941 44.5667 26.3584 44.5667 25.4508C44.5667 24.5433 43.831 23.8076 42.9235 23.8076C42.016 23.8076 41.2803 24.5433 41.2803 25.4508C41.2803 26.3584 42.016 27.0941 42.9235 27.0941Z" fill="#000049" stroke="#000049" stroke-width="2.30359" stroke-miterlimit="10"/>
<path d="M31.9356 34.2466C31.9631 34.4823 31.9733 34.7197 31.9663 34.9569C31.9663 35.2026 31.9318 35.4484 31.9164 35.6941C31.9164 35.7939 31.9625 35.4176 31.9164 35.6941C31.9164 35.767 31.8895 35.84 31.8742 35.9129C31.8473 36.0665 31.8089 36.2201 31.7705 36.3736C31.7321 36.5272 31.6745 36.6923 31.6169 36.8497C31.5901 36.9227 31.4634 37.1991 31.6169 36.9111C31.5786 36.9994 31.5402 37.0877 31.4941 37.1761C31.4173 37.3296 31.3328 37.4832 31.2407 37.6291C31.1908 37.7097 31.1332 37.7865 31.0794 37.8633C31.0257 37.9401 30.9489 38.0361 31.0526 37.9055C31.1562 37.775 30.9988 37.9669 30.9796 37.99C30.8604 38.1361 30.7322 38.2746 30.5957 38.4046C30.5266 38.4699 30.4498 38.5275 30.3807 38.5889C30.2156 38.7387 30.5573 38.4776 30.3807 38.5889C30.3231 38.6235 30.2732 38.6657 30.2156 38.7003C30.0232 38.8308 29.8217 38.9476 29.6128 39.0496L29.3901 39.1533L29.2903 39.1917L29.0676 39.2685C28.7574 39.3715 28.4406 39.4536 28.1193 39.5142L27.8966 39.5526C27.8966 39.5526 27.5933 39.5948 27.7776 39.5526C27.578 39.5756 27.3937 39.5948 27.1787 39.6063C26.2734 39.6512 25.366 39.6114 24.4681 39.4873C24.2139 39.4883 23.9703 39.5898 23.7905 39.7696C23.6108 39.9494 23.5093 40.1929 23.5083 40.4472C23.5132 40.7002 23.6159 40.9415 23.7949 41.1204C23.9738 41.2994 24.2151 41.4021 24.4681 41.407C27.0865 41.741 30.1427 41.5644 32.1199 39.5833C33.2428 38.3875 33.8853 36.8195 33.9244 35.1796C33.9456 34.8583 33.9379 34.5358 33.9013 34.2159C33.8936 33.9638 33.79 33.7241 33.6117 33.5458C33.4333 33.3674 33.1936 33.2638 32.9415 33.2561C32.477 33.2561 31.9126 33.6976 31.9817 34.2159L31.9356 34.2466Z" fill="#000049"/>
<path d="M32.1579 34.2467C32.0587 35.1824 32.1528 36.1285 32.4343 37.0264C32.7196 37.9829 33.2337 38.8554 33.9321 39.5686C34.6305 40.2817 35.4922 40.8139 36.4425 41.1191C38.0858 41.6758 39.8979 41.6527 41.5911 41.4377C41.8435 41.431 42.0837 41.3277 42.2623 41.1491C42.4408 40.9705 42.5441 40.7303 42.5509 40.4779C42.5499 40.2237 42.4484 39.9801 42.2687 39.8003C42.0889 39.6205 41.8453 39.5191 41.5911 39.5181C40.7808 39.6287 39.9628 39.6724 39.1454 39.6486C38.988 39.6486 38.8344 39.6486 38.677 39.6217C38.5688 39.6069 38.4599 39.5979 38.3507 39.5949C38.0258 39.5492 37.704 39.4838 37.387 39.3991C37.1413 39.3338 36.8994 39.2493 36.6614 39.161C36.5155 39.1073 36.8649 39.2609 36.6614 39.161L36.527 39.0996C36.3965 39.0382 36.2698 38.9729 36.1431 38.9C36.0164 38.827 35.9473 38.7848 35.8551 38.7195C35.763 38.6542 35.5134 38.4623 35.7284 38.6389C35.5677 38.5075 35.4139 38.3678 35.2677 38.2204C35.1948 38.1474 35.1295 38.0745 35.0642 37.9977L34.9721 37.8864C34.8838 37.7866 35.1065 38.086 34.9951 37.9209C34.8838 37.7558 34.7724 37.5946 34.6765 37.4218C34.5805 37.249 34.5267 37.1185 34.4461 36.9649C34.3655 36.8114 34.5229 37.1876 34.4461 37.0033C34.4363 36.9695 34.4248 36.9362 34.4115 36.9035C34.377 36.8075 34.3424 36.7154 34.3117 36.6194C34.2207 36.3199 34.1502 36.0147 34.1006 35.7056C34.0545 35.4599 34.1006 35.7901 34.1006 35.7056C34.1006 35.6212 34.1006 35.5713 34.1006 35.506C34.1006 35.3793 34.0814 35.2564 34.0737 35.1221C34.0577 34.83 34.0667 34.5372 34.1006 34.2467C34.1697 33.7322 33.6091 33.2869 33.1407 33.2869C32.8883 33.2937 32.6481 33.397 32.4695 33.5755C32.291 33.7541 32.1877 33.9943 32.1809 34.2467H32.1579Z" fill="#000049"/>
</g>
<defs>
<clipPath id="clip0_1059_1182">
<rect width="67" height="67.9138" fill="white"/>
</clipPath>
</defs>
</svg>

<svg xmlns="http://www.w3.org/2000/svg" width="67" height="68" fill="none"><g clip-path="url(#a)"><path fill="#000049" d="M17.904 55.594v2.367h-2.867v1.11h2.806v2.367h-2.806v2.697h-2.44v-8.541zm4.632 5.576v-3.136h2.258v6.1h-2.258v-.597c-.378.512-.915.768-1.635.768-1.33 0-2.208-.927-2.208-2.745v-3.526h2.257v3.282c0 .55.256.817.756.817.537 0 .83-.366.83-.963m5.493-3.136v1.183c.232-.83.952-1.305 1.83-1.305v2.44q-.732-.09-1.28.293c-.367.256-.55.659-.55 1.22v2.27h-2.257v-6.101zm5.06 2.904v.951h3.172v2.246h-5.613v-8.541H36.2v2.22h-3.111v.928h2.806v2.196zm7.016.146.976-3.05h2.501l-2.318 6.1h-2.318l-2.319-6.1h2.502zm10.033.769h-4.05c.194.402.61.61 1.244.61.378 0 .72-.134 1.037-.39l1.476 1.244c-.61.659-1.476.988-2.586.988-1.038 0-1.88-.305-2.514-.903-.622-.61-.94-1.378-.94-2.293 0-.928.306-1.696.916-2.319.622-.622 1.39-.927 2.33-.927.927 0 1.684.305 2.282.915.598.598.903 1.367.903 2.282 0 .268-.037.537-.098.793M46.051 60.4h2.05q-.202-.732-.989-.732t-1.061.732m7.108-2.367v1.183c.232-.83.952-1.305 1.83-1.305v2.44q-.732-.09-1.281.293c-.366.256-.55.659-.55 1.22v2.27h-2.257v-6.101z"/><path fill="#FBB91C" stroke="#000049" stroke-miterlimit="10" stroke-width="2.304" d="M51.83 13.215v34.308a2.39 2.39 0 0 1-2.387 2.388H17.51a2.387 2.387 0 0 1-2.388-2.392l.023-14.459V13.27L32.112 1.574a2.39 2.39 0 0 1 2.688 0z"/><path fill="#FF5B35" d="M14.267 28.868H5.053c-3.82 0-5.352-4.91-2.22-7.072l12.094-8.358-.023 15.422h-2.173"/><path stroke="#000049" stroke-miterlimit="10" stroke-width="2.304" d="M14.267 28.868H5.053c-3.82 0-5.352-4.91-2.22-7.072l12.094-8.358-.023 15.422h-2.173"/><path fill="#FF5B35" stroke="#000049" stroke-miterlimit="10" stroke-width="2.304" d="m64.167 21.615-12.17-8.292.103 15.357h9.864c3.804.011 5.336-4.9 2.203-7.065Z"/><path fill="#000049" stroke="#000049" stroke-miterlimit="10" stroke-width="2.304" d="M23.44 27.094a1.643 1.643 0 1 0 0-3.286 1.643 1.643 0 0 0 0 3.286Z"/><path fill="#FF5B35" stroke="#000049" stroke-miterlimit="10" stroke-width="2.304" d="M32.895 33.894a3.402 3.402 0 1 0 0-6.804 3.402 3.402 0 0 0 0 6.804Z"/><path fill="#000049" stroke="#000049" stroke-miterlimit="10" stroke-width="2.304" d="M42.924 27.094a1.643 1.643 0 1 0 0-3.286 1.643 1.643 0 0 0 0 3.286Z"/><path fill="#000049" d="M31.936 34.247q.04.353.03.71c0 .246-.034.491-.05.737 0 .1.046-.276 0 0 0 .073-.026.146-.042.219a7 7 0 0 1-.104.46 5 5 0 0 1-.153.477c-.027.073-.154.35 0 .061a5.266 5.266 0 0 1-.376.718c-.05.08-.108.157-.162.234-.053.077-.13.173-.026.043.103-.131-.054.06-.073.084q-.18.22-.384.415c-.07.065-.146.123-.215.184-.165.15.176-.111 0 0-.058.035-.108.077-.165.111a5 5 0 0 1-.603.35l-.223.103-.1.039-.222.077q-.465.154-.949.245l-.222.039s-.304.042-.12 0c-.199.023-.383.042-.598.053-.906.045-1.813.005-2.71-.119a.964.964 0 0 0-.96.96.98.98 0 0 0 .96.96c2.617.334 5.674.157 7.65-1.824a6.67 6.67 0 0 0 1.805-4.403 5.4 5.4 0 0 0-.023-.964.99.99 0 0 0-.96-.96c-.464 0-1.028.442-.96.96z"/><path fill="#000049" d="M32.158 34.247a6.9 6.9 0 0 0 .276 2.78 6.14 6.14 0 0 0 4.009 4.092c1.643.557 3.455.534 5.148.319a.986.986 0 0 0 .96-.96.964.964 0 0 0-.96-.96q-1.217.166-2.446.13c-.157 0-.31 0-.468-.026a3 3 0 0 0-.326-.027 8 8 0 0 1-.964-.196 8 8 0 0 1-.726-.238c-.145-.054.204.1 0 0l-.134-.061a5 5 0 0 1-.672-.38c-.092-.066-.342-.258-.127-.081a6 6 0 0 1-.46-.419 4 4 0 0 1-.204-.222l-.092-.112c-.088-.1.134.2.023.035s-.223-.326-.319-.5c-.096-.172-.15-.303-.23-.456s.077.223 0 .038a1 1 0 0 0-.035-.1q-.052-.142-.1-.284a7 7 0 0 1-.21-.913c-.047-.246 0 .084 0 0v-.2c0-.127-.02-.25-.027-.384a5 5 0 0 1 .027-.875c.069-.515-.492-.96-.96-.96a.987.987 0 0 0-.96.96z"/></g><defs><clipPath id="a"><path fill="#fff" d="M0 0h67v67.914H0z"/></clipPath></defs></svg>
